build/assets/images/help.svg

<svg width="83" height="111" viewBox="0 0 83 111" fill="none" xmlns="http://www.w3.org/2000/svg">
<path d="M42.9645 95.2735V108.26H59.5579C60.0388 108.26 60.3996 108.62 60.3996 109.101C60.3996 109.582 60.0388 109.943 59.5579 109.943H24.2067C23.7257 109.943 23.365 109.582 23.365 109.101C23.365 108.62 23.7257 108.26 24.2067 108.26H41.0406V95.2735H2.80363C1.84169 95.2735 1 94.4318 1 93.4699V42.2467C1 41.2848 1.84169 40.4431 2.80363 40.4431H22.5233C23.0043 40.4431 23.365 40.8038 23.365 41.2848C23.365 41.7658 23.0043 42.1265 22.5233 42.1265H2.80363V93.4699H80.1193V42.2467H61.121C60.64 42.2467 60.2793 41.886 60.2793 41.4051C60.2793 40.9241 60.64 40.5634 61.121 40.5634H80.1193C81.0812 40.5634 81.9229 41.4051 81.9229 42.367V93.7103C81.9229 94.6723 81.0812 95.514 80.1193 95.514H42.9645V95.2735Z" fill="url(#paint0_linear)" stroke="url(#paint1_linear)" stroke-width="2" stroke-miterlimit="10"/>
<path d="M18.3149 21.2038C17.8339 17.9573 14.9481 15.4322 11.461 15.5525C8.2145 15.7929 5.56918 18.5585 5.44894 21.805C5.3287 25.5325 8.21452 28.5386 11.942 28.5386C15.1886 28.5386 17.9541 26.1338 18.4351 22.8872H29.8581V66.8958C29.8581 67.3768 30.2188 67.7375 30.6998 67.7375C31.1807 67.7375 31.5415 67.3768 31.5415 66.8958V22.1658C31.5415 21.6848 31.1807 21.3241 30.6998 21.3241H18.3149V21.2038ZM12.7837 26.735C9.41693 27.3362 6.53112 24.4504 7.25257 21.2038C7.61329 19.4002 9.05621 17.8371 10.9801 17.4763C14.3469 16.8751 17.1124 19.7609 16.5112 23.0075C16.1505 24.9313 14.5873 26.3742 12.7837 26.735Z" fill="url(#paint2_linear)" stroke="url(#paint3_linear)" stroke-width="2" stroke-miterlimit="10"/>
<path d="M72.3034 15.6731C68.8164 15.4326 65.9306 17.9577 65.4496 21.3244H54.0267C53.0647 21.3244 52.223 22.1661 52.223 23.1281V67.1367C52.223 67.6176 52.5837 67.9784 53.0647 67.9784C53.5457 67.9784 53.9064 67.6176 53.9064 67.1367V23.0078H65.3294C65.8104 26.1341 68.4557 28.6592 71.8225 28.6592C75.55 28.6592 78.4358 25.5329 78.3155 21.9257C78.3155 18.5589 75.55 15.9136 72.3034 15.6731ZM72.7844 26.7353C69.4176 27.3366 66.5318 24.4507 67.2533 21.2042C67.614 19.4006 69.0569 17.8374 70.9808 17.4767C74.3475 16.8755 77.1131 19.7613 76.5119 23.0078C76.1512 24.9317 74.7083 26.3746 72.7844 26.7353Z" fill="url(#paint4_linear)" stroke="url(#paint5_linear)" stroke-width="2" stroke-miterlimit="10"/>
<path d="M41.7621 1.00349C38.5156 1.12373 35.75 3.76905 35.5095 7.01559C35.269 10.5026 37.7941 13.5087 41.1609 13.8694V79.0406C41.1609 79.5215 41.5216 79.8823 42.0026 79.8823C42.4835 79.8823 42.8443 79.5215 42.8443 79.0406V13.9896C45.9706 13.5087 48.4956 10.8633 48.4956 7.49656C48.4956 3.8893 45.4896 0.883245 41.7621 1.00349ZM42.9645 12.186C39.5977 12.7872 36.7119 9.9014 37.4334 6.65486C37.7941 4.85123 39.237 3.28809 41.1609 2.92736C44.5277 2.32615 47.4135 5.21196 46.692 8.45849C46.3313 10.2621 44.7681 11.8253 42.9645 12.186Z" fill="url(#paint6_linear)" stroke="url(#paint7_linear)" stroke-width="2" stroke-miterlimit="10"/>
<defs>
<linearGradient id="paint0_linear" x1="41.4614" y1="40.4431" x2="41.4614" y2="109.943" gradientUnits="userSpaceOnUse">
<stop stop-color="#F16122"/>
<stop offset="1" stop-color="#FEBD33"/>
</linearGradient>
<linearGradient id="paint1_linear" x1="41.4614" y1="40.4431" x2="41.4614" y2="109.943" gradientUnits="userSpaceOnUse">
<stop stop-color="#F16122"/>
<stop offset="1" stop-color="#FEBD33"/>
</linearGradient>
<linearGradient id="paint2_linear" x1="18.4934" y1="15.5483" x2="18.4934" y2="67.7375" gradientUnits="userSpaceOnUse">
<stop stop-color="#F16122"/>
<stop offset="1" stop-color="#FEBD33"/>
</linearGradient>
<linearGradient id="paint3_linear" x1="18.4934" y1="15.5483" x2="18.4934" y2="67.7375" gradientUnits="userSpaceOnUse">
<stop stop-color="#F16122"/>
<stop offset="1" stop-color="#FEBD33"/>
</linearGradient>
<linearGradient id="paint4_linear" x1="65.2711" y1="15.6572" x2="65.2711" y2="67.9784" gradientUnits="userSpaceOnUse">
<stop stop-color="#F16122"/>
<stop offset="1" stop-color="#FEBD33"/>
</linearGradient>
<linearGradient id="paint5_linear" x1="65.2711" y1="15.6572" x2="65.2711" y2="67.9784" gradientUnits="userSpaceOnUse">
<stop stop-color="#F16122"/>
<stop offset="1" stop-color="#FEBD33"/>
</linearGradient>
<linearGradient id="paint6_linear" x1="41.9946" y1="1" x2="41.9946" y2="79.8823" gradientUnits="userSpaceOnUse">
<stop stop-color="#F16122"/>
<stop offset="1" stop-color="#FEBD33"/>
</linearGradient>
<linearGradient id="paint7_linear" x1="41.9946" y1="1" x2="41.9946" y2="79.8823" gradientUnits="userSpaceOnUse">
<stop stop-color="#F16122"/>
<stop offset="1" stop-color="#FEBD33"/>
</linearGradient>
</defs>
</svg>

<svg width="83" height="111" fill="none" xmlns="http://www.w3.org/2000/svg"><path d="M42.965 95.273v12.987h16.593c.48 0 .842.36.842.841s-.361.842-.842.842H24.207a.822.822 0 01-.842-.842c0-.481.36-.841.842-.841H41.04V95.273H2.804c-.962 0-1.804-.84-1.804-1.803V42.247c0-.962.842-1.804 1.804-1.804h19.72c.48 0 .841.36.841.842 0 .48-.36.842-.842.842H2.803V93.47H80.12V42.247H61.121a.822.822 0 01-.842-.842c0-.48.361-.842.842-.842h18.998c.962 0 1.804.842 1.804 1.804V93.71c0 .962-.842 1.804-1.804 1.804H42.965v-.24z" fill="url(#paint0_linear)" stroke="url(#paint1_linear)" stroke-width="2" stroke-miterlimit="10"/><path d="M18.315 21.204c-.481-3.247-3.367-5.772-6.854-5.652-3.247.24-5.892 3.006-6.012 6.253-.12 3.727 2.766 6.734 6.493 6.734 3.247 0 6.012-2.405 6.493-5.652h11.423v44.009c0 .48.36.841.842.841.48 0 .841-.36.841-.841v-44.73a.822.822 0 00-.841-.842H18.315v-.12zm-5.531 5.531c-3.367.601-6.253-2.285-5.531-5.531.36-1.804 1.803-3.367 3.727-3.728a4.727 4.727 0 015.531 5.532c-.36 1.923-1.924 3.366-3.727 3.727z" fill="url(#paint2_linear)" stroke="url(#paint3_linear)" stroke-width="2" stroke-miterlimit="10"/><path d="M72.303 15.673c-3.487-.24-6.372 2.285-6.853 5.651H54.027c-.962 0-1.804.842-1.804 1.804v44.009c0 .48.36.841.842.841.48 0 .841-.36.841-.841v-44.13H65.33c.481 3.127 3.127 5.652 6.494 5.652 3.727 0 6.613-3.126 6.493-6.733 0-3.367-2.766-6.012-6.013-6.253zm.481 11.062c-3.366.602-6.252-2.284-5.53-5.53.36-1.804 1.803-3.368 3.727-3.728a4.727 4.727 0 015.53 5.53 4.605 4.605 0 01-3.727 3.728z" fill="url(#paint4_linear)" stroke="url(#paint5_linear)" stroke-width="2" stroke-miterlimit="10"/><path d="M41.762 1.003c-3.246.12-6.012 2.766-6.252 6.013-.241 3.487 2.284 6.493 5.65 6.853v65.172c0 .48.362.841.843.841.48 0 .841-.36.841-.841V13.99c3.127-.481 5.652-3.127 5.652-6.493 0-3.608-3.006-6.614-6.734-6.494zm1.203 11.183c-3.367.601-6.253-2.285-5.532-5.531.361-1.804 1.804-3.367 3.728-3.728 3.367-.6 6.252 2.285 5.531 5.531-.36 1.804-1.924 3.367-3.727 3.728z" fill="url(#paint6_linear)" stroke="url(#paint7_linear)" stroke-width="2" stroke-miterlimit="10"/><defs><linearGradient id="paint0_linear" x1="41.461" y1="40.443" x2="41.461" y2="109.943" gradientUnits="userSpaceOnUse"><stop stop-color="#F16122"/><stop offset="1" stop-color="#FEBD33"/></linearGradient><linearGradient id="paint1_linear" x1="41.461" y1="40.443" x2="41.461" y2="109.943" gradientUnits="userSpaceOnUse"><stop stop-color="#F16122"/><stop offset="1" stop-color="#FEBD33"/></linearGradient><linearGradient id="paint2_linear" x1="18.493" y1="15.548" x2="18.493" y2="67.737" gradientUnits="userSpaceOnUse"><stop stop-color="#F16122"/><stop offset="1" stop-color="#FEBD33"/></linearGradient><linearGradient id="paint3_linear" x1="18.493" y1="15.548" x2="18.493" y2="67.737" gradientUnits="userSpaceOnUse"><stop stop-color="#F16122"/><stop offset="1" stop-color="#FEBD33"/></linearGradient><linearGradient id="paint4_linear" x1="65.271" y1="15.657" x2="65.271" y2="67.978" gradientUnits="userSpaceOnUse"><stop stop-color="#F16122"/><stop offset="1" stop-color="#FEBD33"/></linearGradient><linearGradient id="paint5_linear" x1="65.271" y1="15.657" x2="65.271" y2="67.978" gradientUnits="userSpaceOnUse"><stop stop-color="#F16122"/><stop offset="1" stop-color="#FEBD33"/></linearGradient><linearGradient id="paint6_linear" x1="41.995" y1="1" x2="41.995" y2="79.882" gradientUnits="userSpaceOnUse"><stop stop-color="#F16122"/><stop offset="1" stop-color="#FEBD33"/></linearGradient><linearGradient id="paint7_linear" x1="41.995" y1="1" x2="41.995" y2="79.882" gradientUnits="userSpaceOnUse"><stop stop-color="#F16122"/><stop offset="1" stop-color="#FEBD33"/></linearGradient></defs></svg>
